static/dist/images/icons/lab-flask.svg

<svg xmlns="http://www.w3.org/2000/svg" viewBox="0 0 20 20"><path fill-rule="evenodd" clip-rule="evenodd" d="M16.432 15C14.387 9.893 12 8.547 12 6V3h.5a.5.5 0 0 0 .5-.5v-1a.5.5 0 0 0-.5-.5h-5a.5.5 0 0 0-.5.5v1a.5.5 0 0 0 .5.5H8v3c0 2.547-2.387 3.893-4.432 9-.651 1.625-2.323 4 6.432 4s7.083-2.375 6.432-4zm-1.617 1.751c-.702.21-2.099.449-4.815.449s-4.113-.239-4.815-.449c-.249-.074-.346-.363-.258-.628.22-.67.635-1.828 1.411-3.121 1.896-3.159 3.863.497 5.5.497s1.188-1.561 1.824-.497a15.353 15.353 0 0 1 1.411 3.121c.088.265-.009.553-.258.628z"/></svg>

<?xml version="1.0" encoding="utf-8"?>
<!-- Generator: Adobe Illustrator 18.1.0, SVG Export Plug-In . SVG Version: 6.00 Build 0)  -->
<!DOCTYPE svg PUBLIC "-//W3C//DTD SVG 1.1//EN" "http://www.w3.org/Graphics/SVG/1.1/DTD/svg11.dtd">
<svg version="1.1" id="Lab_flask" xmlns="http://www.w3.org/2000/svg" xmlns:xlink="http://www.w3.org/1999/xlink" x="0px" y="0px"
	 viewBox="0 0 20 20" enable-background="new 0 0 20 20" xml:space="preserve">
<path fill-rule="evenodd" clip-rule="evenodd" d="M16.432,15C14.387,9.893,12,8.547,12,6V3h0.5C12.776,3,13,2.776,13,2.5v-1
	C13,1.224,12.776,1,12.5,1h-5C7.224,1,7,1.224,7,1.5v1C7,2.776,7.224,3,7.5,3H8v3c0,2.547-2.387,3.893-4.432,9
	C2.917,16.625,1.245,19,10,19S17.083,16.625,16.432,15z M14.815,16.751C14.113,16.961,12.716,17.2,10,17.2s-4.113-0.239-4.815-0.449
	c-0.249-0.074-0.346-0.363-0.258-0.628c0.22-0.67,0.635-1.828,1.411-3.121c1.896-3.159,3.863,0.497,5.5,0.497
	c1.637,0,1.188-1.561,1.824-0.497c0.774,1.294,1.191,2.451,1.411,3.121C15.161,16.388,15.064,16.676,14.815,16.751z"/>
</svg>
